X:1
T:Windermere (Somervell), SM
T:Windermere (Somervell), SM
T:Arthur Somervell, 1906
T:Public Domain Courtesy of the Cyber Hymnal™
C:Arthur Somervell, 1906
Z:Public Domain
Z:Courtesy of the Cyber Hymnal™
%%score ( 1 2 ) ( 3 4 )
L:1/8
Q:1/4=115
M:4/4
K:D
V:1 treble 
V:2 treble 
V:3 bass 
V:4 bass 
V:1
 [FA]2 | [GB]2 [FA]2 [DG]2 (AB) | [FA]6 D2 | [CG]2 [DF]2 E2 (FD) | [CE]6 [EA]2 | %5
 [FB]2 [Ac]2 [Ad]2 [Ac]2 | (BA) [E^G]2 !fermata![EA]2 [DF]2 | [DB]2 [DE]2 (GF) [CE]2 | D6 |] %9
V:2
 x2 | x6 G2 | x6 D2 | x4 E2 D2 | x8 | x8 | F2 x6 | x4 D2 x2 | D6 |] %9
V:3
 [D,D]2 | [G,D]2 [D,D]2 [B,,D]2 [G,,D]2 | [D,D]6 [F,A,]2 | [E,G,]2 [D,A,]2 [C,A,]2 [B,,^G,]2 | %4
 [A,,A,]6 [A,C]2 | [A,D]2 [G,E]2 [F,D]2 [E,E]2 | [D,F]2 B,2 !fermata![C,A,]2 [D,A,]2 | %7
 (G,A,) [G,B,]2 (B,A,) [A,,G,]2 | [D,F,]6 |] %9
V:4
 x2 | x8 | x8 | x8 | x8 | x8 | x2 (E,D,) x4 | G,,2 x E,2 x3 | x6 |] %9

